X:12071
T:Norwegian Reila:nder
R:Schottis
H:Norwegian Reila:nder
K:Dm
M:C|
A^cde f2f2|fee^c A2A2|ABAG FEDF|(3A=BAG=B (3=BcBA2|
A^cde f2f2|fee^g a2a2|ageg fedf|e2^c2 d4:|
|:fefg fed2|defd ^c2A2|FAGA FAGA|FAG=B (3=BcBA2|
A^cde f2f2|fee^g a2a2|ageg fedf|e2^c2 d4:|


